static/assets/images/TayOS/icons/netsplorer.svg

<svg fill="none" height="22" viewBox="0 0 22 22" width="22" xmlns="http://www.w3.org/2000/svg"><path clip-rule="evenodd" d="m5 2h12v2h2v2h1v10h-1v2h-2v2h-12v-2h-2v-2h-1v-10h1v-2h2z" fill="#d9d9d9" fill-rule="evenodd"/><path d="m10 18.5h1" stroke="#5394e9"/><path d="m11 18.5h1" stroke="#5394e9"/><path d="m10 3.5h1" stroke="#f04472"/><path d="m11 3.5h1" stroke="#f04472"/><g stroke="#000"><path d="m6 20.5h10"/><path d="m6 20.5h10"/><path d="m6 20.5h10"/><path d="m6 1.5h10"/><path d="m1.5 16v-10"/><path d="m.5 14v-6"/><path d="m8 .5h6"/><path d="m20.5 16v-10"/><path d="m2 16.5h1"/><path d="m3 17.5h1"/><path d="m3 18.5h1"/><path d="m1 16.5h1"/><path d="m20 16.5h1"/><path d="m20 5.5h1"/><path d="m2 5.5h1"/><path d="m3 3.5h1"/><path d="m2 17.5h1"/><path d="m3 4.5h1"/><path d="m1 5.5h1"/><path d="m2 4.5h1"/><path d="m4 3.5h1"/><path d="m4 2.5h1"/><path d="m10 10.5h1"/><path d="m11 11.5h1"/><path d="m10 11.5h1"/><path d="m11 10.5h1"/><path d="m12 9.5h1"/><path d="m13 8.5h1"/><path d="m14 7.5h1"/><path d="m12 8.5h1"/><path d="m11 9.5h1"/><path d="m12 10.5h1"/><path d="m13 9.5h1"/><path d="m14 8.5h1"/><path d="m13 7.5h1"/><path d="m13 6.5h1"/><path d="m12 6.5h1"/><path d="m15 9.5h1"/><path d="m15 8.5h1"/><path d="m15 7.5h1"/><path d="m14 6.5h1"/><path d="m15 6.5h1"/><path d="m5 2.5h1"/><path d="m5 1.5h1"/><path d="m16 2.5h1"/><path d="m16 1.5h1"/><path d="m17 3.5h1"/><path d="m17 2.5h1"/><path d="m18 4.5h1"/><path d="m18 3.5h1"/><path d="m19 5.5h1"/><path d="m19 4.5h1"/><path d="m4 19.5h1"/><path d="m5 20.5h1"/><path d="m5 19.5h1"/><path d="m16 19.5h1"/><path d="m16 20.5h1"/><path d="m17 19.5h1"/><path d="m17 18.5h1"/><path d="m18 18.5h1"/><path d="m18 17.5h1"/><path d="m19 17.5h1"/><path d="m19 16.5h1"/><path d="m4 18.5h1"/><path d="m21.5 14v-6"/><path d="m8 21.5h6"/></g></svg>

<svg width="22" height="22" viewBox="0 0 22 22" fill="none" xmlns="http://www.w3.org/2000/svg">
<path fill-rule="evenodd" clip-rule="evenodd" d="M5 2H17V4H19V6H20V16H19V18H17V20H5V18H3V16H2V6H3V4H5V2Z" fill="#D9D9D9"/>
<line x1="10" y1="18.5" x2="11" y2="18.5" stroke="#5394E9"/>
<line x1="11" y1="18.5" x2="12" y2="18.5" stroke="#5394E9"/>
<line x1="10" y1="3.5" x2="11" y2="3.5" stroke="#F04472"/>
<line x1="11" y1="3.5" x2="12" y2="3.5" stroke="#F04472"/>
<line x1="6" y1="20.5" x2="16" y2="20.5" stroke="black"/>
<line x1="6" y1="20.5" x2="16" y2="20.5" stroke="black"/>
<line x1="6" y1="20.5" x2="16" y2="20.5" stroke="black"/>
<line x1="6" y1="1.5" x2="16" y2="1.5" stroke="black"/>
<line x1="1.5" y1="16" x2="1.5" y2="6" stroke="black"/>
<line x1="0.5" y1="14" x2="0.5" y2="8" stroke="black"/>
<line x1="8" y1="0.5" x2="14" y2="0.5" stroke="black"/>
<line x1="20.5" y1="16" x2="20.5" y2="6" stroke="black"/>
<line x1="2" y1="16.5" x2="3" y2="16.5" stroke="black"/>
<line x1="3" y1="17.5" x2="4" y2="17.5" stroke="black"/>
<line x1="3" y1="18.5" x2="4" y2="18.5" stroke="black"/>
<line x1="1" y1="16.5" x2="2" y2="16.5" stroke="black"/>
<line x1="20" y1="16.5" x2="21" y2="16.5" stroke="black"/>
<line x1="20" y1="5.5" x2="21" y2="5.5" stroke="black"/>
<line x1="2" y1="5.5" x2="3" y2="5.5" stroke="black"/>
<line x1="3" y1="3.5" x2="4" y2="3.5" stroke="black"/>
<line x1="2" y1="17.5" x2="3" y2="17.5" stroke="black"/>
<line x1="3" y1="4.5" x2="4" y2="4.5" stroke="black"/>
<line x1="1" y1="5.5" x2="2" y2="5.5" stroke="black"/>
<line x1="2" y1="4.5" x2="3" y2="4.5" stroke="black"/>
<line x1="4" y1="3.5" x2="5" y2="3.5" stroke="black"/>
<line x1="4" y1="2.5" x2="5" y2="2.5" stroke="black"/>
<line x1="10" y1="10.5" x2="11" y2="10.5" stroke="black"/>
<line x1="11" y1="11.5" x2="12" y2="11.5" stroke="black"/>
<line x1="10" y1="11.5" x2="11" y2="11.5" stroke="black"/>
<line x1="11" y1="10.5" x2="12" y2="10.5" stroke="black"/>
<line x1="12" y1="9.5" x2="13" y2="9.5" stroke="black"/>
<line x1="13" y1="8.5" x2="14" y2="8.5" stroke="black"/>
<line x1="14" y1="7.5" x2="15" y2="7.5" stroke="black"/>
<line x1="12" y1="8.5" x2="13" y2="8.5" stroke="black"/>
<line x1="11" y1="9.5" x2="12" y2="9.5" stroke="black"/>
<line x1="12" y1="10.5" x2="13" y2="10.5" stroke="black"/>
<line x1="13" y1="9.5" x2="14" y2="9.5" stroke="black"/>
<line x1="14" y1="8.5" x2="15" y2="8.5" stroke="black"/>
<line x1="13" y1="7.5" x2="14" y2="7.5" stroke="black"/>
<line x1="13" y1="6.5" x2="14" y2="6.5" stroke="black"/>
<line x1="12" y1="6.5" x2="13" y2="6.5" stroke="black"/>
<line x1="15" y1="9.5" x2="16" y2="9.5" stroke="black"/>
<line x1="15" y1="8.5" x2="16" y2="8.5" stroke="black"/>
<line x1="15" y1="7.5" x2="16" y2="7.5" stroke="black"/>
<line x1="14" y1="6.5" x2="15" y2="6.5" stroke="black"/>
<line x1="15" y1="6.5" x2="16" y2="6.5" stroke="black"/>
<line x1="5" y1="2.5" x2="6" y2="2.5" stroke="black"/>
<line x1="5" y1="1.5" x2="6" y2="1.5" stroke="black"/>
<line x1="16" y1="2.5" x2="17" y2="2.5" stroke="black"/>
<line x1="16" y1="1.5" x2="17" y2="1.5" stroke="black"/>
<line x1="17" y1="3.5" x2="18" y2="3.5" stroke="black"/>
<line x1="17" y1="2.5" x2="18" y2="2.5" stroke="black"/>
<line x1="18" y1="4.5" x2="19" y2="4.5" stroke="black"/>
<line x1="18" y1="3.5" x2="19" y2="3.5" stroke="black"/>
<line x1="19" y1="5.5" x2="20" y2="5.5" stroke="black"/>
<line x1="19" y1="4.5" x2="20" y2="4.5" stroke="black"/>
<line x1="4" y1="19.5" x2="5" y2="19.5" stroke="black"/>
<line x1="5" y1="20.5" x2="6" y2="20.5" stroke="black"/>
<line x1="5" y1="19.5" x2="6" y2="19.5" stroke="black"/>
<line x1="16" y1="19.5" x2="17" y2="19.5" stroke="black"/>
<line x1="16" y1="20.5" x2="17" y2="20.5" stroke="black"/>
<line x1="17" y1="19.5" x2="18" y2="19.5" stroke="black"/>
<line x1="17" y1="18.5" x2="18" y2="18.5" stroke="black"/>
<line x1="18" y1="18.5" x2="19" y2="18.5" stroke="black"/>
<line x1="18" y1="17.5" x2="19" y2="17.5" stroke="black"/>
<line x1="19" y1="17.5" x2="20" y2="17.5" stroke="black"/>
<line x1="19" y1="16.5" x2="20" y2="16.5" stroke="black"/>
<line x1="4" y1="18.5" x2="5" y2="18.5" stroke="black"/>
<line x1="21.5" y1="14" x2="21.5" y2="8" stroke="black"/>
<line x1="8" y1="21.5" x2="14" y2="21.5" stroke="black"/>
</svg>
